app/img/icons/instagram.svg

<svg width="14" height="14" viewBox="0 0 14 14" fill="none" xmlns="http://www.w3.org/2000/svg">
<path d="M6.99816 3.73471C5.19129 3.73471 3.73306 5.19296 3.73306 6.99987C3.73306 8.80677 5.19129 10.265 6.99816 10.265C8.80503 10.265 10.2633 8.80677 10.2633 6.99987C10.2633 5.19296 8.80503 3.73471 6.99816 3.73471ZM6.99816 9.12198C5.82966 9.12198 4.87608 8.16838 4.87608 6.99987C4.87608 5.83135 5.82966 4.87775 6.99816 4.87775C8.16665 4.87775 9.12023 5.83135 9.12023 6.99987C9.12023 8.16838 8.16665 9.12198 6.99816 9.12198ZM10.397 2.84001C9.97511 2.84001 9.63444 3.1807 9.63444 3.60257C9.63444 4.02445 9.97511 4.36513 10.397 4.36513C10.8189 4.36513 11.1595 4.02604 11.1595 3.60257C11.1597 3.50239 11.14 3.40318 11.1017 3.3106C11.0635 3.21803 11.0073 3.13391 10.9365 3.06308C10.8656 2.99224 10.7815 2.93608 10.6889 2.8978C10.5964 2.85952 10.4972 2.83988 10.397 2.84001ZM13.3628 6.99987C13.3628 6.12109 13.3708 5.25028 13.3214 4.37309C13.2721 3.35422 13.0396 2.44997 12.2946 1.70493C11.548 0.958285 10.6453 0.727447 9.62648 0.678096C8.74772 0.628744 7.87692 0.636704 6.99975 0.636704C6.12099 0.636704 5.25019 0.628744 4.37302 0.678096C3.35417 0.727447 2.44994 0.959877 1.70491 1.70493C0.958279 2.45157 0.727445 3.35422 0.678095 4.37309C0.628744 5.25187 0.636704 6.12268 0.636704 6.99987C0.636704 7.87705 0.628744 8.74946 0.678095 9.62664C0.727445 10.6455 0.959871 11.5498 1.70491 12.2948C2.45153 13.0414 3.35417 13.2723 4.37302 13.3216C5.25178 13.371 6.12258 13.363 6.99975 13.363C7.87851 13.363 8.74931 13.371 9.62648 13.3216C10.6453 13.2723 11.5496 13.0399 12.2946 12.2948C13.0412 11.5482 13.2721 10.6455 13.3214 9.62664C13.3723 8.74946 13.3628 7.87864 13.3628 6.99987ZM11.9619 10.7538C11.8457 11.0435 11.7056 11.26 11.4811 11.4829C11.2566 11.7074 11.0417 11.8475 10.752 11.9637C9.91462 12.2964 7.92627 12.2216 6.99816 12.2216C6.07005 12.2216 4.0801 12.2964 3.24273 11.9653C2.953 11.8491 2.73649 11.709 2.51362 11.4845C2.28915 11.26 2.14906 11.0451 2.03285 10.7554C1.70172 9.91638 1.77654 7.92799 1.77654 6.99987C1.77654 6.07174 1.70172 4.08176 2.03285 3.24437C2.14906 2.95463 2.28915 2.73812 2.51362 2.51525C2.73809 2.29237 2.953 2.15068 3.24273 2.03447C4.0801 1.70333 6.07005 1.77816 6.99816 1.77816C7.92627 1.77816 9.91621 1.70333 10.7536 2.03447C11.0433 2.15068 11.2598 2.29078 11.4827 2.51525C11.7072 2.73972 11.8473 2.95463 11.9635 3.24437C12.2946 4.08176 12.2198 6.07174 12.2198 6.99987C12.2198 7.92799 12.2946 9.91638 11.9619 10.7538Z" fill="white"/>
</svg>

<svg width="14" height="14" fill="none" xmlns="http://www.w3.org/2000/svg"><path d="M6.998 3.735A3.26 3.26 0 003.733 7a3.26 3.26 0 003.265 3.265A3.26 3.26 0 0010.263 7a3.26 3.26 0 00-3.265-3.265zm0 5.387A2.127 2.127 0 014.876 7c0-1.169.954-2.122 2.122-2.122C8.167 4.878 9.12 5.83 9.12 7a2.127 2.127 0 01-2.122 2.122zm3.399-6.282a.762.762 0 100 1.525.76.76 0 00.54-1.302.762.762 0 00-.54-.223zM13.363 7c0-.879.008-1.75-.042-2.627-.049-1.019-.281-1.923-1.026-2.668-.747-.747-1.65-.978-2.669-1.027C8.748.628 7.876.637 7 .637c-.879 0-1.75-.008-2.627.041C3.354.728 2.45.96 1.705 1.705.958 2.452.727 3.355.678 4.373.628 5.252.637 6.123.637 7c0 .877-.008 1.75.041 2.627.05 1.018.282 1.923 1.027 2.668.747.746 1.65.977 2.668 1.027.879.049 1.75.041 2.627.041.879 0 1.75.008 2.626-.041 1.02-.05 1.924-.282 2.669-1.027.746-.747.977-1.65 1.026-2.668.051-.878.042-1.748.042-2.627zm-1.401 3.754c-.116.29-.256.506-.48.729-.225.224-.44.364-.73.48-.837.333-2.826.259-3.754.259-.928 0-2.918.074-3.755-.257a2.022 2.022 0 01-.73-.48 2.037 2.037 0 01-.48-.73C1.702 9.916 1.777 7.928 1.777 7c0-.928-.075-2.918.256-3.756.116-.29.256-.506.48-.729.225-.223.44-.364.73-.48.837-.332 2.827-.257 3.755-.257.928 0 2.918-.075 3.756.256.29.117.506.257.729.481.224.225.364.44.48.73.332.837.257 2.827.257 3.755 0 .928.075 2.916-.258 3.754z" fill="#fff"/></svg>
